X:0952
T:Lord Lindsay's March.
M:C
L:1/8
Q:1/2=66
I: || ||
Z:Jack Campin * www.campin.me.uk * 2009
K:D
   d2dd d2 fd      |e2ee e2 ge      |f2ff fa`gf      |edcB AGFE|
   dAFA df`ed      |ecAc eg`fe      |fadf ge`ce      |d2dd d2 ||
fg|afdf aa b/a/g/f/|gece gg a/g/f/e/|fdBd fa b/a/g/f/|edcB AFFE|
   DFAd fd`AF      |EGBd ge`cA      |fadf ge`ce      |d2dd d2 |]

